X:1
T:Title
%%score { ( 1 3 ) | ( 2 4 ) }
L:1/8
M:3/4
K:Ab
V:1 treble nm="Grand Piano"
V:3 treble 
V:2 bass 
V:4 bass 
V:1
 z2 z2[Q:1/4=100] [EAc][FAd] | [EAB]2 [EGB]2 [DGB][DGc] | [DEA]2 [CEA]2 [A,EA][A,EG] | %3
 [A,EF]2 F2 AF |[M:2/4] E4 |[M:1/4] cd |[M:3/4] [AB]2 [GB]2 [DGB][DGc] | %7
 [DEA]2 [CEA]2 [D_GB][EGc] | %8
 [DFd]3 [DF] [DEG]>[DEA][Q:1/4=99][Q:1/4=97][Q:1/4=96][Q:1/4=94][Q:1/4=93][Q:1/4=91][Q:1/4=90][Q:1/4=88][Q:1/4=87][Q:1/4=85][Q:1/4=84][Q:1/4=82][Q:1/4=81][Q:1/4=79][Q:1/4=78][Q:1/4=76] | %9
[M:2/4] [CEA]4 |] %10
V:2
 z2 z2 A,A, | E,2 E,2 E,E, | A,2 A,2 C,C, | D,2 [D,A,D]2 [D,F,D][F,A,D] |[M:2/4] D2 z2 | %5
[M:1/4][K:treble] [A,EA][A,FA] |[M:3/4][K:bass] [E,E]2 [E,E]2 E,E, | A,2 A,2 A,A, | D,3 B,, E,>E, | %9
[M:2/4] A,,4 |] %10
V:3
 x6 | x6 | x6 | x6 |[M:2/4] z2 C2 |[M:1/4] x2 |[M:3/4] x6 | x6 | x6 |[M:2/4] x4 |] %10
V:4
 x6 | x6 | x6 | x6 |[M:2/4] A,4 |[M:1/4][K:treble] x2 |[M:3/4][K:bass] x6 | x6 | x6 |[M:2/4] x4 |] %10

